Gurmukhi/0A40.svg

<svg enable-background="new 0 0 336 592" viewBox="0 0 336 592" xmlns="http://www.w3.org/2000/svg"><path d="m227.833572 109.878044c21.136429 7.113617 33.063919 22.77993 41.20784 41.998619 5.361481 12.652451 8.107178 26.001831 9.207581 39.657807.266113 3.302353 1.61972 4.318924 4.658569 4.291168 7.997834-.073075 16.000275.126465 23.993897-.068024 3.353088-.081573 5.288391 1.063736 6.342865 4.24025 1.204162 3.627548 2.800964 7.124374 4.016388 10.748672 1.482971 4.422196.19284 6.307831-4.467743 6.373322-8.330292.117035-16.663361.031799-24.99527.044739-7.478882.011611-7.487457.019683-7.48761 7.263137-.001251 52.99115.00174 105.982331 0 158.973481-.000061 1.665924.112732 3.35025-.088959 4.993866-.396301 3.229339-2.268615 4.435333-5.235748 2.964843-5.968048-2.957611-11.821228-6.146393-17.773895-9.136108-2.893173-1.453125-2.518875-4.017639-2.519577-6.484772-.007996-27.828705-.000992-55.657379-.000626-83.486084.00029-22.996185-.13121-45.993637.098694-68.987488.048721-4.873138-1.482834-6.386673-6.256927-6.173584-7.650101.341492-15.333832-.105926-22.988968.173584-3.814942.139313-5.883835-1.303131-7.037079-4.768585-1.155136-3.47113-2.595047-6.84703-3.768509-10.312637-1.682907-4.97023-.719544-6.316391 4.674637-6.355896 9.831146-.072037 19.663238-.007126 29.494842-.032654 5.72731-.014862 5.811859-.421585 5.370407-6.005081-.920837-11.646805-2.361999-23.170471-6.501587-34.180237-4.816986-12.81134-13.051742-22.076965-27.081375-24.647354-17.916214-3.28244-34.298538 7.931885-35.44226 27.123413-.43483 7.296661.884475 14.239151 3.597992 20.969086.97052 2.407043 3.103668 5.271347.198318 7.188217-2.869522 1.893265-6.347382 1.507828-9.284119-.826141-13.037323-10.361451-19.322631-30.663575-14.544082-47.041886 4.977325-17.059631 21.672348-29.743622 39.595764-30.846313 7.762329-.477555 15.231506.030128 23.01654 2.34864z"/><path d="m194.736877 292.878265c2.891648-5.135894 6.449814-6.981384 10.533387-5.566284 4.055313 1.405304 6.240036 4.369568 5.944503 8.686829-.297271 4.342651-2.966308 6.89801-7.124862 7.777649-5.843384 1.236023-9.987519-3.447144-9.353028-10.898194z"/><path d="m135.990692 219.901489c4.619843.668366 7.487503 2.9487 8.193665 7.240479.588806 3.578567-.724076 6.574402-3.913102 8.511413-4.142517 2.516175-9.29425 1.205933-11.679092-2.896698-2.485092-4.275085-.86087-9.639846 3.675415-11.866516 1.02446-.502853 2.213287-.670822 3.723114-.988678z"/><path d="m196.270554 261.786316c6.492141.607513 10.205871 4.465027 9.476043 9.369842-.747711 5.025025-5.065841 8.167023-10.075729 7.238404-4.160614-.77121-6.472763-3.614655-6.744949-7.561127-.32721-4.743957 2.328826-7.764313 7.344635-9.047119z"/><path d="m205.821869 320.87854c-2.132065 7.726837-8.936173 10.677216-13.81665 6.262939-2.792908-2.526123-4.137436-5.610626-2.512375-9.413146 1.616958-3.783509 4.483642-5.941376 8.569854-5.518769 4.75885.492218 7.376404 3.474182 7.759171 8.668976z"/><path d="m82.446182 267.780029c.545342 6.004181-1.720688 9.658966-6.211471 10.56128-4.696999.943786-8.705307-1.427033-10.092369-5.969422-1.164421-3.813293.932144-8.127807 4.790321-9.858002 4.509506-2.022277 8.092987-.484039 11.513519 5.266144z"/><path d="m62.152332 290.469696c3.289173-3.684021 6.928723-4.695007 10.944218-2.395142 3.322708 1.903077 4.778358 5.008423 4.120438 8.873841-.668457 3.927337-3.246567 6.074035-6.992478 6.806091-2.992782.5849-5.591347-.404419-7.545471-2.756836-2.649574-3.189575-2.646111-6.637176-.526707-10.527954z"/><path d="m88.131622 334.552032c5.592972.715546 8.799248 3.721894 8.911415 7.981812.101708 3.862854-3.133934 7.824219-7.028122 8.604492-4.203125.842194-8.15924-1.629089-9.630218-6.015747-1.654472-4.933838 1.417419-9.329712 7.746925-10.570557z"/><path d="m88.902328 239.685425c5.321328.6138 7.916245 3.666199 7.992104 8.324508.060364 3.70636-1.943527 6.749741-5.713264 7.911911-4.088166 1.260376-7.56514.096222-9.959687-3.552078-3.501594-5.335098.154198-11.673218 7.680847-12.684341z"/><path d="m116.267288 227.553726c4.002968 5.53598 3.614609 10.249405-.773186 13.251526-4.139625 2.832337-9.439109 1.682098-12.103729-2.678635-2.228332-3.646728-1.537391-7.191635 1.238777-10.030685 3.357605-3.43364 7.358872-3.299637 11.638138-.542206z"/><path d="m179.192261 350.208862c-3.520279-2.600311-5.31012-5.583679-4.023987-9.675934.957474-3.046478 2.865311-5.275756 6.148758-5.865051 3.737335-.670868 7.0793.232971 9.111847 3.608978 1.843765 3.062409 1.862137 6.463013-.308716 9.381806-2.690872 3.617981-6.309372 4.668335-10.927902 2.550201z"/><path d="m102.464783 355.495361c2.015228-5.790741 5.687767-7.958282 10.706627-6.643951 3.760276.98468 6.615059 5.409912 5.954376 9.229889-.783547 4.530334-4.733574 7.580078-9.318634 7.194763-4.505959-.378723-7.279206-3.888947-7.342369-9.780701z"/><path d="m80.955673 325.850525c-3.305687 3.248169-6.75708 4.413574-10.62149 2.059204-3.028603-1.845245-4.961571-4.618683-4.384079-8.308716.583565-3.728851 2.71083-6.394653 6.625595-7.228485 3.419517-.728363 6.296089.333283 8.412895 3.023316 2.563957 3.2583 2.470451 6.720062-.032921 10.454681z"/><path d="m132.94693 370.211121c-4.624466-2.121491-5.935181-5.637116-5.16111-10.008362.667976-3.772125 3.448448-5.623383 6.916649-6.279511 3.682709-.696777 6.477051 1.062958 8.404495 4.110138 1.873917 2.962525 1.74231 6.07663-.21524 8.910706-2.317536 3.355194-5.574997 4.54721-9.944794 3.267029z"/><path d="m179.139648 255.304718c-3.589355-2.568787-5.197799-5.610641-3.936431-9.648865 1.017257-3.256744 3.165252-5.421341 6.64421-5.917938 3.373749-.481522 6.265198.471954 8.229554 3.404236 2.154251 3.215729 2.225067 6.646042.00975 9.739044-2.672012 3.730652-6.408417 4.345795-10.947083 2.423523z"/><path d="m152.709854 357.822815c.009781-5.218231 2.231217-8.332062 7.071381-9.095245 4.293228-.676972 7.68045 1.025146 9.09407 5.152771 1.333298 3.893035.541062 7.570861-3.158523 10.088195-5.02446 3.418885-10.621613.93927-13.006928-6.145721z"/><path d="m152.819214 235.589294c.187775-7.151947 3.254166-10.327819 9.115173-9.916397 4.962128.348313 8.150772 4.534195 7.314484 9.755585-.62616 3.90947-3.144806 6.225876-6.917038 6.75441-4.772339.668701-7.862854-1.731537-9.512619-6.593598z"/></svg>

<svg version="1.1" id="Layer_1" xmlns="http://www.w3.org/2000/svg" xmlns:xlink="http://www.w3.org/1999/xlink" x="0px" y="0px"
	 width="100%" viewBox="0 0 336 592" enable-background="new 0 0 336 592" xml:space="preserve">
<path fill="#000000" opacity="1.000000" stroke="none" 
	d="
M227.833572,109.878044 
	C248.970001,116.991661 260.897491,132.657974 269.041412,151.876663 
	C274.402893,164.529114 277.148590,177.878494 278.248993,191.534470 
	C278.515106,194.836823 279.868713,195.853394 282.907562,195.825638 
	C290.905396,195.752563 298.907837,195.952103 306.901459,195.757614 
	C310.254547,195.676041 312.189850,196.821350 313.244324,199.997864 
	C314.448486,203.625412 316.045288,207.122238 317.260712,210.746536 
	C318.743683,215.168732 317.453552,217.054367 312.792969,217.119858 
	C304.462677,217.236893 296.129608,217.151657 287.797699,217.164597 
	C280.318817,217.176208 280.310242,217.184280 280.310089,224.427734 
	C280.308838,277.418884 280.311829,330.410065 280.310089,383.401215 
	C280.310028,385.067139 280.422821,386.751465 280.221130,388.395081 
	C279.824829,391.624420 277.952515,392.830414 274.985382,391.359924 
	C269.017334,388.402313 263.164154,385.213531 257.211487,382.223816 
	C254.318314,380.770691 254.692612,378.206177 254.691910,375.739044 
	C254.683914,347.910339 254.690918,320.081665 254.691284,292.252960 
	C254.691574,269.256775 254.560074,246.259323 254.789978,223.265472 
	C254.838699,218.392334 253.307144,216.878799 248.533051,217.091888 
	C240.882950,217.433380 233.199219,216.985962 225.544083,217.265472 
	C221.729141,217.404785 219.660248,215.962341 218.507004,212.496887 
	C217.351868,209.025757 215.911957,205.649857 214.738495,202.184250 
	C213.055588,197.214020 214.018951,195.867859 219.413132,195.828354 
	C229.244278,195.756317 239.076370,195.821228 248.907974,195.795700 
	C254.635284,195.780838 254.719833,195.374115 254.278381,189.790619 
	C253.357544,178.143814 251.916382,166.620148 247.776794,155.610382 
	C242.959808,142.799042 234.725052,133.533417 220.695419,130.963028 
	C202.779205,127.680588 186.396881,138.894913 185.253159,158.086441 
	C184.818329,165.383102 186.137634,172.325592 188.851151,179.055527 
	C189.821671,181.462570 191.954819,184.326874 189.049469,186.243744 
	C186.179947,188.137009 182.702087,187.751572 179.765350,185.417603 
	C166.728027,175.056152 160.442719,154.754028 165.221268,138.375717 
	C170.198593,121.316086 186.893616,108.632095 204.817032,107.529404 
	C212.579361,107.051849 220.048538,107.559532 227.833572,109.878044 
z"/>
<path fill="#000000" opacity="1.000000" stroke="none" 
	d="
M194.736877,292.878265 
	C197.628525,287.742371 201.186691,285.896881 205.270264,287.311981 
	C209.325577,288.717285 211.510300,291.681549 211.214767,295.998810 
	C210.917496,300.341461 208.248459,302.896820 204.089905,303.776459 
	C198.246521,305.012482 194.102386,300.329315 194.736877,292.878265 
z"/>
<path fill="#000000" opacity="1.000000" stroke="none" 
	d="
M135.990692,219.901489 
	C140.610535,220.569855 143.478195,222.850189 144.184357,227.141968 
	C144.773163,230.720535 143.460281,233.716370 140.271255,235.653381 
	C136.128738,238.169556 130.977005,236.859314 128.592163,232.756683 
	C126.107071,228.481598 127.731293,223.116837 132.267578,220.890167 
	C133.292038,220.387314 134.480865,220.219345 135.990692,219.901489 
z"/>
<path fill="#000000" opacity="1.000000" stroke="none" 
	d="
M196.270554,261.786316 
	C202.762695,262.393829 206.476425,266.251343 205.746597,271.156158 
	C204.998886,276.181183 200.680756,279.323181 195.670868,278.394562 
	C191.510254,277.623352 189.198105,274.779907 188.925919,270.833435 
	C188.598709,266.089478 191.254745,263.069122 196.270554,261.786316 
z"/>
<path fill="#000000" opacity="1.000000" stroke="none" 
	d="
M205.821869,320.878540 
	C203.689804,328.605377 196.885696,331.555756 192.005219,327.141479 
	C189.212311,324.615356 187.867783,321.530853 189.492844,317.728333 
	C191.109802,313.944824 193.976486,311.786957 198.062698,312.209564 
	C202.821548,312.701782 205.439102,315.683746 205.821869,320.878540 
z"/>
<path fill="#000000" opacity="1.000000" stroke="none" 
	d="
M82.446182,267.780029 
	C82.991524,273.784210 80.725494,277.438995 76.234711,278.341309 
	C71.537712,279.285095 67.529404,276.914276 66.142342,272.371887 
	C64.977921,268.558594 67.074486,264.244080 70.932663,262.513885 
	C75.442169,260.491608 79.025650,262.029846 82.446182,267.780029 
z"/>
<path fill="#000000" opacity="1.000000" stroke="none" 
	d="
M62.152332,290.469696 
	C65.441505,286.785675 69.081055,285.774689 73.096550,288.074554 
	C76.419258,289.977631 77.874908,293.082977 77.216988,296.948395 
	C76.548531,300.875732 73.970421,303.022430 70.224510,303.754486 
	C67.231728,304.339386 64.633163,303.350067 62.679039,300.997650 
	C60.029465,297.808075 60.032928,294.360474 62.152332,290.469696 
z"/>
<path fill="#000000" opacity="1.000000" stroke="none" 
	d="
M88.131622,334.552032 
	C93.724594,335.267578 96.930870,338.273926 97.043037,342.533844 
	C97.144745,346.396698 93.909103,350.358063 90.014915,351.138336 
	C85.811790,351.980530 81.855675,349.509247 80.384697,345.122589 
	C78.730225,340.188751 81.802116,335.792877 88.131622,334.552032 
z"/>
<path fill="#000000" opacity="1.000000" stroke="none" 
	d="
M88.902328,239.685425 
	C94.223656,240.299225 96.818573,243.351624 96.894432,248.009933 
	C96.954796,251.716293 94.950905,254.759674 91.181168,255.921844 
	C87.093002,257.182220 83.616028,256.018066 81.221481,252.369766 
	C77.719887,247.034668 81.375679,240.696548 88.902328,239.685425 
z"/>
<path fill="#000000" opacity="1.000000" stroke="none" 
	d="
M116.267288,227.553726 
	C120.270256,233.089706 119.881897,237.803131 115.494102,240.805252 
	C111.354477,243.637589 106.054993,242.487350 103.390373,238.126617 
	C101.162041,234.479889 101.852982,230.934982 104.629150,228.095932 
	C107.986755,224.662292 111.988022,224.796295 116.267288,227.553726 
z"/>
<path fill="#000000" opacity="1.000000" stroke="none" 
	d="
M179.192261,350.208862 
	C175.671982,347.608551 173.882141,344.625183 175.168274,340.532928 
	C176.125748,337.486450 178.033585,335.257172 181.317032,334.667877 
	C185.054367,333.997009 188.396332,334.900848 190.428879,338.276855 
	C192.272644,341.339264 192.291016,344.739868 190.120163,347.658661 
	C187.429291,351.276642 183.810791,352.326996 179.192261,350.208862 
z"/>
<path fill="#000000" opacity="1.000000" stroke="none" 
	d="
M102.464783,355.495361 
	C104.480011,349.704620 108.152550,347.537079 113.171410,348.851410 
	C116.931686,349.836090 119.786469,354.261322 119.125786,358.081299 
	C118.342239,362.611633 114.392212,365.661377 109.807152,365.276062 
	C105.301193,364.897339 102.527946,361.387115 102.464783,355.495361 
z"/>
<path fill="#000000" opacity="1.000000" stroke="none" 
	d="
M80.955673,325.850525 
	C77.649986,329.098694 74.198593,330.264099 70.334183,327.909729 
	C67.305580,326.064484 65.372612,323.291046 65.950104,319.601013 
	C66.533669,315.872162 68.660934,313.206360 72.575699,312.372528 
	C75.995216,311.644165 78.871788,312.705811 80.988594,315.395844 
	C83.552551,318.654144 83.459045,322.115906 80.955673,325.850525 
z"/>
<path fill="#000000" opacity="1.000000" stroke="none" 
	d="
M132.946930,370.211121 
	C128.322464,368.089630 127.011749,364.574005 127.785820,360.202759 
	C128.453796,356.430634 131.234268,354.579376 134.702469,353.923248 
	C138.385178,353.226471 141.179520,354.986206 143.106964,358.033386 
	C144.980881,360.995911 144.849274,364.110016 142.891724,366.944092 
	C140.574188,370.299286 137.316727,371.491302 132.946930,370.211121 
z"/>
<path fill="#000000" opacity="1.000000" stroke="none" 
	d="
M179.139648,255.304718 
	C175.550293,252.735931 173.941849,249.694077 175.203217,245.655853 
	C176.220474,242.399109 178.368469,240.234512 181.847427,239.737915 
	C185.221176,239.256393 188.112625,240.209869 190.076981,243.142151 
	C192.231232,246.357880 192.302048,249.788193 190.086731,252.881195 
	C187.414719,256.611847 183.678314,257.226990 179.139648,255.304718 
z"/>
<path fill="#000000" opacity="1.000000" stroke="none" 
	d="
M152.709854,357.822815 
	C152.719635,352.604584 154.941071,349.490753 159.781235,348.727570 
	C164.074463,348.050598 167.461685,349.752716 168.875305,353.880341 
	C170.208603,357.773376 169.416367,361.451202 165.716782,363.968536 
	C160.692322,367.387421 155.095169,364.907806 152.709854,357.822815 
z"/>
<path fill="#000000" opacity="1.000000" stroke="none" 
	d="
M152.819214,235.589294 
	C153.006989,228.437347 156.073380,225.261475 161.934387,225.672897 
	C166.896515,226.021210 170.085159,230.207092 169.248871,235.428482 
	C168.622711,239.337952 166.104065,241.654358 162.331833,242.182892 
	C157.559494,242.851593 154.468979,240.451355 152.819214,235.589294 
z"/>
</svg>
